brandFactory_export/1.Light/Futbol balon_1Light.svg

<?xml version="1.0" encoding="UTF-8"?>
<svg width="24px" height="24px" viewBox="0 0 24 24" version="1.1" xmlns="http://www.w3.org/2000/svg" xmlns:xlink="http://www.w3.org/1999/xlink">
    <title>1.Light/Futbol balon_1Light</title>
    <g id="Symbols" stroke="none" stroke-width="1" fill="none" fill-rule="evenodd">
        <g id="1.Light/Futbol-balon_1Light" fill="#5CB615" fill-rule="nonzero">
            <path d="M18.3932773,20.9983193 C17.210084,21.7445378 15.9428571,22.1512605 14.8470588,22.3764706 C14.8605042,22.3159664 14.8672269,22.2521008 14.887395,22.1915966 L15.892437,19.102521 C15.9831933,18.810084 16.1747899,18.5445378 16.4403361,18.3563025 C16.6991597,18.1680672 17.0016807,18.087395 17.3277311,18.0705882 L20.5781513,18.0705882 C20.7697479,18.0705882 20.9546218,18.1176471 21.1294118,18.1882353 C20.4571429,19.3277311 19.5193277,20.292437 18.3932773,20.9983193 Z M12.4268908,22.6386555 L12.2016807,22.6386555 C11.9092437,22.6386555 11.6033613,22.6352941 11.3411765,22.6285714 C10.9613445,22.6184874 10.3563025,22.5815126 9.63361345,22.4672269 C9.62352941,22.2521008 9.58319328,22.0403361 9.51932773,21.8352941 L8.51764706,18.7596639 C8.40672269,18.410084 8.21848739,18.0907563 7.96302521,17.8252101 L8.88067227,16.4369748 C9.25714286,16.6689076 9.6907563,16.8 10.1512605,16.8 L13.4285714,16.8 C13.8689076,16.8 14.2890756,16.6789916 14.6554622,16.4705882 L15.5092437,17.8621849 C15.2537815,18.1277311 15.0621849,18.4504202 14.9478992,18.8033613 L13.9529412,21.8823529 C13.8857143,22.0941176 13.8487395,22.3159664 13.8386555,22.5378151 C13.2504202,22.6084034 12.7529412,22.6352941 12.4268908,22.6386555 Z M2.51764706,18.0672269 C2.63529412,18.0369748 2.75966387,18.0134454 2.90756303,18.0134454 L6.15462185,18.0134454 C6.45378151,18.0403361 6.77310924,18.1109244 7.03529412,18.2991597 C7.29747899,18.487395 7.48907563,18.7563025 7.58319328,19.0554622 L8.58823529,22.1411765 C8.60168067,22.1781513 8.60168067,22.2184874 8.61176471,22.2588235 C7.57647059,22.010084 6.41344538,21.6033613 5.31764706,20.9142857 C4.17142857,20.2016807 3.21344538,19.2235294 2.51764706,18.0672269 L2.51764706,18.0672269 Z M2.93445378,4.87058824 C3.03865546,5.00840336 3.11932773,5.15966387 3.17310924,5.32773109 L4.17815126,8.41680672 C4.27563025,8.70588235 4.27563025,9.03529412 4.17815126,9.34117647 C4.08067227,9.64369748 3.88907563,9.9092437 3.6302521,10.0941176 L1.00504202,12 C1.00168067,12.0033613 0.998319328,12.0033613 0.994957983,12.0067227 C0.994957983,11.9294118 0.98487395,11.8554622 0.98487395,11.7747899 C0.98487395,8.66554622 1.77815126,6.45042017 2.93445378,4.87058824 L2.93445378,4.87058824 Z M7.10588235,1.78151261 C7.27394958,2.04033613 7.46890756,2.27563025 7.72436975,2.45714286 L10.3428571,4.35966387 C10.6285714,4.57142857 10.9647059,4.71260504 11.3210084,4.78655462 L11.3210084,6.8907563 C10.9680672,6.9512605 10.6352941,7.08907563 10.3462185,7.30084034 L7.72436975,9.20336134 C7.42184874,9.42184874 7.1697479,9.70756303 6.99159664,10.0369748 L5.21008403,9.21344538 C5.2605042,8.83697479 5.2302521,8.45714286 5.11260504,8.10756303 L4.11092437,5.02521008 C4,4.68235294 3.81176471,4.36638655 3.56638655,4.10420168 C4.62521008,2.96806723 5.88571429,2.24201681 7.10588235,1.78151261 Z M11.287395,0.991596639 C11.6369748,0.98487395 11.9865546,0.98487395 12.3361345,0.988235294 C12.9546218,0.998319328 14.1680672,1.07563025 15.5394958,1.45210084 C15.4689076,1.52605042 15.405042,1.60336134 15.3210084,1.66386555 L12.692437,3.57310924 C12.2016807,3.94285714 11.4285714,3.94621849 10.9243697,3.5697479 L8.29915966,1.6605042 C8.22184874,1.60336134 8.15798319,1.53277311 8.09411765,1.46218487 C9.13613445,1.17310924 10.2084034,1.01512605 11.287395,0.991596639 Z M20.0773109,4.10756303 C19.794958,4.38655462 19.5798319,4.72941176 19.4588235,5.10588235 L18.4571429,8.18151261 C18.3394958,8.53445378 18.3058824,8.91092437 18.3563025,9.28067227 L16.6151261,10.0134454 C16.4403361,9.69411765 16.194958,9.42184874 15.902521,9.20672269 L13.287395,7.30756303 C12.9983193,7.09579832 12.6621849,6.95462185 12.3092437,6.89411765 L12.3092437,4.78991597 C12.6621849,4.71932773 13.0016807,4.57815126 13.2806723,4.36638655 L15.8991597,2.46386555 C16.1613445,2.2789916 16.3596639,2.03361345 16.5277311,1.77142857 C17.1361345,2 17.7546218,2.28907563 18.3563025,2.66890756 C19.005042,3.07226891 19.5731092,3.55966387 20.0773109,4.10756303 L20.0773109,4.10756303 Z M8.75630252,14.7798319 L8.64537815,14.4403361 L8.64201681,14.4403361 L7.7512605,11.687395 C7.54621849,11.0655462 7.76806723,10.3798319 8.30252101,10 L10.9310924,8.0907563 C11.4184874,7.7210084 12.1915966,7.71764706 12.6991597,8.09411765 L15.3243697,10 C15.8588235,10.3831933 16.0806723,11.0621849 15.8756303,11.687395 L14.8705882,14.7663866 C14.6689076,15.3882353 14.0907563,15.8117647 13.4352941,15.8117647 L10.1848739,15.8117647 C9.55630252,15.8487395 8.96470588,15.4084034 8.75630252,14.7798319 Z M7.16638655,17.2504202 C6.83697479,17.0957983 6.48067227,17.0117647 6.14789916,17.0319328 L2.91092437,17.0319328 C2.61512605,17.0386555 2.32268908,17.0991597 2.04369748,17.2033613 C1.49243697,16.0168067 1.15966387,14.6420168 1.04201681,13.0957983 C1.23361345,13.0184874 1.41848739,12.9210084 1.58655462,12.8 L4.20168067,10.897479 C4.47731092,10.702521 4.70588235,10.4403361 4.88067227,10.1478992 L6.7092437,10.9915966 C6.67563025,11.3277311 6.71260504,11.6705882 6.81680672,11.9932773 L7.93277311,15.4252101 L7.96302521,15.4252101 C8.02016807,15.5394958 8.10084034,15.6302521 8.17142857,15.7344538 C8.16806723,15.7344538 7.16638655,17.2504202 7.16638655,17.2504202 L7.16638655,17.2504202 Z M16.3226891,17.3008403 L15.4117647,15.8151261 C15.5798319,15.5966387 15.7142857,15.3478992 15.805042,15.0722689 L16.8067227,11.9932773 C16.9210084,11.6504202 16.9478992,11.2941176 16.9109244,10.9512605 L18.6756303,10.2084034 C18.8537815,10.5109244 19.0823529,10.7764706 19.3579832,10.9714286 L21.9798319,12.8739496 C22.1647059,13.0084034 22.3697479,13.1092437 22.5848739,13.189916 C22.4672269,14.7428571 22.1411765,16.1176471 21.6033613,17.3008403 C21.2806723,17.1529412 20.9344538,17.0756303 20.5815126,17.0756303 L17.3344538,17.0756303 C16.9848739,17.0957983 16.6420168,17.1697479 16.3226891,17.3008403 L16.3226891,17.3008403 Z M22.6285714,12.1210084 C22.605042,12.107563 22.5815126,12.097479 22.5613445,12.0806723 L19.9327731,10.1747899 C19.6739496,9.98991597 19.4857143,9.72773109 19.3882353,9.42521008 C19.287395,9.12268908 19.287395,8.79663866 19.3882353,8.49411765 L20.389916,5.40840336 C20.4537815,5.21008403 20.5647059,5.03865546 20.6991597,4.88403361 C21.9798319,6.65210084 22.6386555,8.97142857 22.6386555,11.8521008 C22.6386555,11.9428571 22.6319328,12.0302521 22.6285714,12.1210084 L22.6285714,12.1210084 Z M12.3529412,0.00336134454 C11.9932773,6.36860356e-16 11.6336134,6.36860356e-16 11.2739496,0.00672268908 C9.01848739,0.0470588235 0,0.894117647 0,11.7815126 C0,22.6420168 9.00504202,23.5563025 11.3176471,23.6134454 C11.5865546,23.6201681 11.8991597,23.6235294 12.2016807,23.6235294 L12.4369748,23.6235294 C14.810084,23.6033613 23.6235294,22.789916 23.6235294,11.8487395 C23.6235294,0.894117647 14.7260504,0.0369747899 12.3529412,0.00336134454 Z" id="Futbol-balon_1Light"></path>
        </g>
    </g>
</svg>

<svg width="24" height="24" viewBox="0 0 24 24" xmlns="http://www.w3.org/2000/svg"><path d="M18.393 20.998c-1.183.747-2.45 1.153-3.546 1.378.014-.06.02-.124.04-.184l1.005-3.09c.091-.292.283-.557.548-.746.26-.188.562-.269.888-.285h3.25c.192 0 .377.047.551.117a8.288 8.288 0 01-2.736 2.81zm-5.966 1.64h-.225c-.293 0-.599-.003-.86-.01-.38-.01-.986-.046-1.708-.16a2.523 2.523 0 00-.115-.633L8.518 18.76c-.111-.35-.3-.67-.555-.935l.918-1.388c.376.232.81.363 1.27.363h3.278c.44 0 .86-.121 1.226-.33l.854 1.392a2.442 2.442 0 00-.561.941l-.995 3.08a2.554 2.554 0 00-.114.655c-.589.07-1.086.097-1.412.1zm-9.91-4.57c.118-.031.243-.055.39-.055h3.248c.299.027.618.098.88.286.262.188.454.457.548.756l1.005 3.086c.014.037.014.077.024.118-1.036-.249-2.199-.656-3.294-1.345a8.525 8.525 0 01-2.8-2.847zM2.935 4.87c.105.137.185.289.24.457l1.004 3.089a1.497 1.497 0 01-.548 1.677L1.005 12c-.003.003-.007.003-.01.007 0-.078-.01-.152-.01-.232 0-3.11.793-5.325 1.95-6.904zm4.172-3.09c.168.26.363.495.618.676l2.619 1.903c.286.211.622.353.978.427V6.89c-.353.06-.686.198-.975.41L7.724 9.203a2.495 2.495 0 00-.732.834L5.21 9.213c.05-.376.02-.756-.097-1.105L4.11 5.025c-.111-.343-.3-.659-.545-.92 1.06-1.137 2.32-1.863 3.54-2.323zm4.181-.79c.35-.006.7-.006 1.05-.003.618.01 1.831.088 3.202.464-.07.074-.134.151-.218.212l-2.629 1.91c-.49.369-1.263.372-1.768-.004L8.3 1.66a1.43 1.43 0 01-.205-.198 13.004 13.004 0 013.193-.47zm8.79 3.117a2.474 2.474 0 00-.618.998l-1.002 3.076c-.118.352-.151.729-.1 1.099l-1.742.732a2.487 2.487 0 00-.712-.806l-2.616-1.9a2.32 2.32 0 00-.978-.413V4.79c.353-.07.693-.212.972-.424l2.618-1.902c.262-.185.46-.43.629-.693a9.99 9.99 0 011.828.898c.649.403 1.217.89 1.721 1.439zM8.757 14.78l-.112-.34h-.003l-.89-2.753A1.496 1.496 0 018.301 10l2.63-1.91c.486-.369 1.26-.372 1.767.004L15.324 10c.535.383.757 1.062.552 1.687l-1.005 3.08a1.51 1.51 0 01-1.436 1.045h-3.25c-.629.037-1.22-.404-1.429-1.032zm-1.59 2.47a2.139 2.139 0 00-1.02-.218H2.912a2.653 2.653 0 00-.867.171c-.552-1.186-.884-2.561-1.002-4.107.192-.078.376-.175.545-.296l2.615-1.903c.275-.194.504-.457.679-.75l1.828.845a2.47 2.47 0 00.108 1.001l1.116 3.432h.03c.057.114.138.205.208.31-.003 0-1.005 1.515-1.005 1.515zm9.156.05l-.911-1.485c.168-.218.302-.467.393-.743l1.002-3.079c.114-.343.14-.699.104-1.042l1.765-.743c.178.303.406.568.682.763l2.622 1.903c.185.134.39.235.605.316-.118 1.553-.444 2.928-.982 4.11a2.446 2.446 0 00-1.021-.224h-3.248a3.14 3.14 0 00-1.011.225zm6.306-5.179c-.024-.013-.047-.024-.068-.04l-2.628-1.906a1.47 1.47 0 01-.545-.75 1.47 1.47 0 010-.93l1.002-3.087c.064-.198.175-.37.31-.524 1.28 1.768 1.939 4.087 1.939 6.968 0 .09-.007.178-.01.269zM12.353.003c-.36-.003-.72-.003-1.08.004C9.019.047 0 .894 0 11.782c0 10.86 9.005 11.774 11.318 11.831.269.007.581.01.884.01h.235c2.373-.02 11.187-.833 11.187-11.774C23.624.894 14.726.037 12.353.003z" fill="#5CB615" fill-rule="nonzero"/></svg>
